src/img/icons/data-access.svg

<?xml version="1.0" encoding="UTF-8"?>
<svg width="90px" height="90px" viewBox="0 0 90 90" version="1.1" xmlns="http://www.w3.org/2000/svg" xmlns:xlink="http://www.w3.org/1999/xlink">
    <!-- Generator: Sketch 49.3 (51167) - http://www.bohemiancoding.com/sketch -->
    <title>magnifying-glass</title>
    <desc>Created with Sketch.</desc>
    <defs></defs>
    <g id="Welcome" stroke="none" stroke-width="1" fill="none" fill-rule="evenodd">
        <g id="1-index-1440" transform="translate(-829.000000, -530.000000)" fill-rule="nonzero">
            <g id="Group-3" transform="translate(729.000000, 461.000000)">
                <g id="magnifying-glass" transform="translate(100.000000, 69.000000)">
                    <path d="M44.9219406,89.843703 C20.2148911,89.843703 0,69.6288119 0,44.9219406 C0,20.2150693 20.2148911,0 44.9219406,0 C69.6289901,0 89.8438812,20.2148911 89.8438812,44.9219406 C89.8438812,69.6289901 69.6288119,89.843703 44.9219406,89.843703 Z" id="Shape" fill="#E7E7E7"></path>
                    <rect id="Rectangle-path" fill="#FFFFFF" transform="translate(55.681582, 55.618799) rotate(135.000000) translate(-55.681582, -55.618799) " x="52.1019332" y="50.3546519" width="7.15929768" height="10.5282951"></rect>
                    <path d="M56.8541584,63.311703 C56.4330297,63.311703 56.1523366,63.1712673 55.8714653,62.8905743 L48.2909703,55.4503366 C47.7294059,54.8887723 47.7294059,54.0465149 48.2909703,53.4849505 L53.3446931,48.4312277 C53.9062574,47.8696634 54.7485149,47.8696634 55.3100792,48.4312277 L62.7503168,55.8714653 C63.3118812,56.4330297 63.3118812,57.2752871 62.7503168,57.8368515 L57.6965941,62.8905743 C57.5561584,63.1714455 57.1350297,63.311703 56.8541584,63.311703 Z M51.3793069,54.4678218 L56.8541584,59.9426733 L59.942495,56.8543366 L54.4676436,51.3794851 L51.3793069,54.4678218 Z" id="Shape" fill="#183651"></path>
                    <path d="M63.7328317,54.8889505 L55.0292079,63.5925743 L73.9805347,85.4919802 C77.0688713,89.1418812 82.6841584,89.2823168 86.0533663,85.9131089 C89.4225743,82.543901 89.2821386,76.9287921 85.6322376,73.8402772 L63.7328317,54.8889505 Z" id="Shape" fill="#3283C8"></path>
                    <path d="M72.8575842,86.474495 L53.9062574,64.7155248 C53.4851287,64.1539604 53.4851287,63.311703 53.9062574,62.7501386 L62.6098812,54.0465149 C63.1714455,53.4849505 64.013703,53.4849505 64.5752673,54.0465149 L86.4746733,72.9980198 C90.6861386,76.6479208 90.9668317,83.245901 86.895802,87.176495 C82.9650297,90.9668317 76.5074851,90.6859604 72.8575842,86.474495 Z M56.8541584,63.7328317 L74.9632277,84.6495446 C77.49,87.5976238 82.1225941,87.8783168 85.0706733,84.9302376 C87.8783168,82.1225941 87.7378812,77.49 84.7899802,74.8227921 L63.7328317,56.8541584 L56.8541584,63.7328317 Z" id="Shape" fill="#183651"></path>
                    <circle id="Oval" fill="#FFFFFF" cx="34.3933663" cy="34.3933663" r="28.6376436"></circle>
                    <path d="M34.3933663,64.4348317 C17.6881188,64.4348317 4.21146535,50.9583564 4.21146535,34.3933663 C4.21146535,17.8283762 17.6879406,4.35172277 34.2529307,4.35172277 C50.8179208,4.35172277 64.4348317,17.828198 64.4348317,34.5336238 C64.4348317,50.9581782 50.9581782,64.4348317 34.3933663,64.4348317 Z M34.3933663,7.01910891 C27.0935644,7.01910891 20.2148911,9.82675248 15.0207327,15.0207327 C9.82657426,20.2147129 7.01910891,27.0935644 7.01910891,34.3933663 C7.01910891,49.414099 19.232198,61.7676238 34.2529307,61.7676238 L34.2529307,63.1714455 L34.2529307,61.7676238 C49.2736634,61.7676238 61.4867525,49.5545347 61.4867525,34.533802 C61.6271881,19.232198 49.414099,7.01910891 34.3933663,7.01910891 Z" id="Shape" fill="#183651"></path>
                    <path d="M34.3933663,56.713901 C22.0398416,56.713901 11.932396,46.6064554 11.932396,34.2529307 C11.932396,21.8994059 22.0398416,11.7919604 34.3933663,11.7919604 C46.7468911,11.7919604 56.8543366,21.8994059 56.8543366,34.2529307 C56.713901,46.7468911 46.7468911,56.713901 34.3933663,56.713901 Z" id="Shape" fill="#05B8EE"></path>
                    <path d="M49.414099,35.7971881 C48.5718416,35.7971881 48.0102772,35.2356238 48.0102772,34.3933663 C48.0102772,26.9531287 41.833604,20.7764554 34.3933663,20.7764554 C33.5511089,20.7764554 32.9895446,20.2148911 32.9895446,19.3726337 C32.9895446,18.5303762 33.5511089,17.9688119 34.3933663,17.9688119 C43.5181188,17.9688119 50.8179208,25.4090495 50.8179208,34.3933663 C50.8179208,35.0951881 50.1159208,35.7971881 49.414099,35.7971881 Z" id="Shape" fill="#FFFFFF"></path>
                    <g id="Group" transform="translate(65.584158, 65.584158)" fill="#183651">
                        <rect id="Rectangle-path" transform="translate(2.143924, 2.054438) rotate(-135.000000) translate(-2.143924, -2.054438) " x="0.740115221" y="0.650629843" width="2.80761664" height="2.80761664"></rect>
                        <rect id="Rectangle-path" transform="translate(7.973369, 7.973832) rotate(-134.979744) translate(-7.973369, -7.973832) " x="6.56937203" y="6.56983498" width="2.80799357" height="2.80799357"></rect>
                        <rect id="Rectangle-path" transform="translate(13.801179, 13.898870) rotate(-135.000000) translate(-13.801179, -13.898870) " x="12.3973706" y="12.4950617" width="2.80761664" height="2.80761664"></rect>
                    </g>
                </g>
            </g>
        </g>
    </g>
</svg>

<svg width="90" height="90" xmlns="http://www.w3.org/2000/svg"><g fill="none"><path d="M44.922 89.844C20.215 89.844 0 69.629 0 44.922 0 20.215 20.215 0 44.922 0c24.707 0 44.922 20.215 44.922 44.922 0 24.707-20.215 44.922-44.922 44.922z" fill="#E7E7E7"/><path fill="#FFF" d="M61.935 56.81l-5.062 5.062-7.445-7.445 5.062-5.062z"/><path d="M56.854 63.312c-.421 0-.702-.14-.983-.421l-7.58-7.44a1.357 1.357 0 010-1.966l5.054-5.054a1.357 1.357 0 011.965 0l7.44 7.44a1.357 1.357 0 010 1.966l-5.053 5.054c-.14.28-.562.42-.843.42zm-5.475-8.844l5.475 5.475 3.088-3.089-5.474-5.475-3.089 3.089z" fill="#183651"/><path d="M63.733 54.889l-8.704 8.704 18.952 21.899c3.088 3.65 8.703 3.79 12.072.421 3.37-3.37 3.23-8.984-.42-12.073l-21.9-18.951z" fill="#3283C8"/><path d="M72.858 86.474L53.906 64.716a1.687 1.687 0 010-1.966l8.704-8.703a1.357 1.357 0 011.965 0l21.9 18.951c4.211 3.65 4.492 10.248.42 14.178-3.93 3.79-10.388 3.51-14.037-.702zM56.854 63.733l18.11 20.917c2.526 2.948 7.159 3.228 10.107.28 2.807-2.807 2.667-7.44-.281-10.107L63.733 56.854l-6.879 6.879z" fill="#183651"/><circle fill="#FFF" cx="34.393" cy="34.393" r="28.638"/><path d="M34.393 64.435c-16.705 0-30.182-13.477-30.182-30.042S17.688 4.352 34.253 4.352s30.182 13.476 30.182 30.182c0 16.424-13.477 29.9-30.042 29.9zm0-57.416c-7.3 0-14.178 2.808-19.372 8.002-5.194 5.194-8.002 12.073-8.002 19.372 0 15.021 12.213 27.375 27.234 27.375v1.403-1.403c15.02 0 27.234-12.213 27.234-27.234.14-15.302-12.073-27.515-27.094-27.515z" fill="#183651"/><path d="M34.393 56.714c-12.353 0-22.46-10.108-22.46-22.461 0-12.354 10.107-22.461 22.46-22.461 12.354 0 22.461 10.107 22.461 22.46-.14 12.495-10.107 22.462-22.46 22.462z" fill="#05B8EE"/><path d="M49.414 35.797c-.842 0-1.404-.561-1.404-1.404 0-7.44-6.176-13.617-13.617-13.617-.842 0-1.403-.561-1.403-1.403 0-.843.561-1.404 1.403-1.404 9.125 0 16.425 7.44 16.425 16.424 0 .702-.702 1.404-1.404 1.404z" fill="#FFF"/><path d="M67.728 69.624l-1.985-1.986 1.985-1.985 1.986 1.985zm5.829 5.92l-1.985-1.987 1.987-1.984 1.984 1.986zm5.829 5.925L77.4 79.483l1.986-1.985 1.985 1.985z" fill="#183651"/></g></svg>
